svg/theatre-11.svg

<?xml version="1.0" encoding="utf-8"?>
<!-- Generator: Adobe Illustrator 19.2.1, SVG Export Plug-In . SVG Version: 6.00 Build 0)  -->
<!DOCTYPE svg PUBLIC "-//W3C//DTD SVG 1.1//EN" "http://www.w3.org/Graphics/SVG/1.1/DTD/svg11.dtd">
<svg version="1.1"
	 id="svg4764" inkscape:version="0.91 r13725" sodipodi:docname="theatre-11.svg" xmlns:cc="http://creativecommons.org/ns#" xmlns:dc="http://purl.org/dc/elements/1.1/" xmlns:inkscape="http://www.inkscape.org/namespaces/inkscape" xmlns:rdf="http://www.w3.org/1999/02/22-rdf-syntax-ns#" xmlns:sodipodi="http://sodipodi.sourceforge.net/DTD/sodipodi-0.dtd" xmlns:svg="http://www.w3.org/2000/svg"
	 xmlns="http://www.w3.org/2000/svg" xmlns:xlink="http://www.w3.org/1999/xlink" x="0px" y="0px" width="11px" height="11px"
	 viewBox="0 0 11 11" style="enable-background:new 0 0 11 11;" xml:space="preserve">
<path id="path6370" d="M0.6055,0.6992C0.3027,0.6992,0,1.0019,0,1.3047v3.7344C0,6.4519,0.578,8,3,8h0.5V6.1836L1.2109,6.1758
	c0,0,0.3026-1.1367,1.8164-1.1367c0.3028,0,0.4036,0.0006,0.6055,0.1016V3.7266c0-0.6055,0.2018-1.0078,0.6055-1.3105
	C4.541,2.1133,4.789,2,5.3945,2H6V1.3945c0-0.3028-0.1972-0.6582-0.5-0.6582c-0.6055,0-1.1607,0.5684-2.4727,0.5684
	C2.0182,1.3047,1.211,0.6992,0.6055,0.6992z M1.75,2.5c0.4142,0,0.75,0.3358,0.75,0.75S2.1642,4,1.75,4S1,3.6642,1,3.25
	S1.3358,2.5,1.75,2.5z M5.5,3C5.1972,3,4.9453,3.4238,4.9453,3.7266v3.7344c0,1.4128,0.6053,3.0273,3.0273,3.0273
	S11,8.7729,11,7.4609V3.7266C11,3.4238,10.8028,3,10.5,3C9.8945,3,8.9083,3.5,8,3.5S6.1055,3,5.5,3z M6.75,5
	C7.1642,5,7.5,5.3358,7.5,5.75S7.1642,6.5,6.75,6.5S6,6.1642,6,5.75S6.3358,5,6.75,5z M9.25,5C9.6642,5,10,5.3358,10,5.75
	S9.6642,6.5,9.25,6.5S8.5,6.1642,8.5,5.75S8.8358,5,9.25,5z M6.1562,8.0664h3.7344c0,0-0.3026,1.2109-1.8164,1.2109
	S6.1562,8.0664,6.1562,8.0664z"/>
</svg>

<svg xmlns="http://www.w3.org/2000/svg" width="11" height="11">
    <path d="M.606.7C.303.7 0 1.001 0 1.304v3.734C0 6.452.578 8 3 8h.5V6.184l-2.29-.008s.304-1.137 1.817-1.137c.303 0 .404 0 .606.102V3.727c0-.606.202-1.008.605-1.31C4.541 2.112 4.79 2 5.394 2H6v-.605c0-.303-.197-.659-.5-.659-.606 0-1.16.569-2.473.569-1.009 0-1.816-.606-2.421-.606zM1.75 2.5a.75.75 0 1 1 0 1.5.75.75 0 0 1 0-1.5zM5.5 3c-.303 0-.555.424-.555.727V7.46c0 1.413.606 3.027 3.028 3.027S11 8.773 11 7.461V3.727c0-.303-.197-.727-.5-.727-.605 0-1.592.5-2.5.5S6.106 3 5.5 3zm1.25 2a.75.75 0 1 1 0 1.5.75.75 0 0 1 0-1.5zm2.5 0a.75.75 0 1 1 0 1.5.75.75 0 0 1 0-1.5zM6.156 8.066h3.735s-.303 1.211-1.817 1.211-1.918-1.21-1.918-1.21z"/>
</svg>
